cc-by.svg

<?xml version="1.0"?>
<svg
    xmlns="http://www.w3.org/2000/svg"
    xmlns:rdf="http://www.w3.org/1999/02/22-rdf-syntax-ns#"
    xmlns:cc="http://creativecommons.org/ns#"
    width="120"
    height="42"
    version="1.0">
    <rdf:RDF>
        <cc:Work
            rdf:about="http://creativecommons.org/about/downloads"/>
    </rdf:RDF>
    <g
        transform="matrix(0.9937728,0,0,0.9936696,-177.69267,6.25128e-7)">
        <path
            nodetypes="ccccccc"
            d="M 181.96579,0.51074 L 296.02975,0.71338 C 297.6235,0.71338 299.04733,0.47705 299.04733,3.89404 L 298.90768,41.46093 L 179.08737,41.46093 L 179.08737,3.75439 C 179.08737,2.06934 179.25046,0.51074 181.96579,0.51074 z"
            style="fill:#aab2ab"/>

        <path
            d="M 297.29636,0 L 181.06736,0 C 179.82078,0 178.80613,1.01416 178.80613,2.26074 L 178.80613,41.75732 C 178.80613,42.03906 179.03513,42.26757 179.31687,42.26757 L 299.04734,42.26757 C 299.32908,42.26757 299.55808,42.03905 299.55808,41.75732 L 299.55808,2.26074 C 299.55807,1.01416 298.54343,0 297.29636,0 z M 181.06735,1.02148 L 297.29635,1.02148 C 297.98043,1.02148 298.53658,1.57714 298.53658,2.26074 C 298.53658,2.26074 298.53658,18.20898 298.53658,29.71045 L 215.19234,29.71045 C 212.14742,35.21631 206.28121,38.95459 199.54879,38.95459 C 192.81344,38.95459 186.94869,35.21973 183.90524,29.71045 L 179.8276,29.71045 C 179.8276,18.20899 179.8276,2.26074 179.8276,2.26074 C 179.82761,1.57715 180.38376,1.02148 181.06735,1.02148 z"/>

        <g
            enable-background="new ">
            <path
                d="M 253.07761,32.95605 C 253.39499,32.95605 253.68503,32.98437 253.94773,33.04003 C 254.20945,33.09569 254.43308,33.18749 254.62058,33.31542 C 254.8071,33.44237 254.95261,33.6123 255.05515,33.82323 C 255.15769,34.03514 255.20945,34.29589 255.20945,34.60741 C 255.20945,34.94335 255.13328,35.22264 254.97996,35.44628 C 254.82762,35.67089 254.60105,35.85351 254.30223,35.99706 C 254.71434,36.11522 255.02196,36.32226 255.22508,36.61815 C 255.4282,36.91404 255.52977,37.27049 255.52977,37.68749 C 255.52977,38.02343 255.46434,38.31444 255.33348,38.56054 C 255.20262,38.80566 255.02586,39.00683 254.80516,39.1621 C 254.58348,39.31835 254.33055,39.43358 254.04735,39.5078 C 253.76317,39.583 253.47215,39.6201 253.17235,39.6201 L 249.936,39.6201 L 249.936,32.95604 L 253.07761,32.95604 L 253.07761,32.95605 z M 252.89011,35.65137 C 253.15183,35.65137 253.36667,35.58887 253.53562,35.46485 C 253.70359,35.34083 253.78757,35.13965 253.78757,34.86036 C 253.78757,34.70509 253.75925,34.57716 253.70359,34.47852 C 253.64695,34.37891 253.57273,34.30176 253.47898,34.24512 C 253.38523,34.18946 253.27781,34.15039 253.15671,34.12891 C 253.03561,34.10743 252.90866,34.09668 252.77878,34.09668 L 251.40476,34.09668 L 251.40476,35.65137 L 252.89011,35.65137 z M 252.97604,38.47949 C 253.11959,38.47949 253.25631,38.46582 253.38717,38.4375 C 253.51803,38.40918 253.63326,38.3623 253.73385,38.29785 C 253.83346,38.23242 253.91256,38.14355 253.97213,38.03125 C 254.0317,37.91992 254.061,37.77637 254.061,37.60254 C 254.061,37.26074 253.96432,37.0166 253.77096,36.87012 C 253.5776,36.72461 253.32174,36.65137 253.00436,36.65137 L 251.40475,36.65137 L 251.40475,38.47949 L 252.97604,38.47949 z"
                style="fill:#ffffff"/>

            <path
                d="M 255.78854,32.95605 L 257.43209,32.95605 L 258.99264,35.58789 L 260.54342,32.95605 L 262.17721,32.95605 L 259.70358,37.0625 L 259.70358,39.62012 L 258.23483,39.62012 L 258.23483,37.02539 L 255.78854,32.95605 z"
                style="fill:#ffffff"/>

        </g>

        <g
            transform="matrix(0.872921,0,0,0.872921,50.12536,143.2144)">

            <path
                cx="296.35416"
                ry="22.939548"
                cy="264.3577"
                type="arc"
                rx="22.939548"
                d="M 186.90065,-141.46002 C 186.90623,-132.77923 179.87279,-125.73852 171.19257,-125.73291 C 162.51235,-125.72736 155.47051,-132.76025 155.46547,-141.44098 C 155.46547,-141.44714 155.46547,-141.45331 155.46547,-141.46002 C 155.46043,-150.14081 162.49333,-157.18152 171.17355,-157.18658 C 179.8549,-157.19213 186.89561,-150.15924 186.90065,-141.47845 C 186.90065,-141.4729 186.90065,-141.46619 186.90065,-141.46002 z"
                style="fill:#ffffff"/>

            <g
                transform="translate(-289.6157,99.0653)">
                <path
                    d="M 473.57574,-253.32751 C 477.06115,-249.8421 478.80413,-245.5736 478.80413,-240.52532 C 478.80413,-235.47594 477.09136,-231.25329 473.66582,-227.85741 C 470.03051,-224.28081 465.734,-222.49309 460.77635,-222.49309 C 455.87858,-222.49309 451.65648,-224.26628 448.11122,-227.81261 C 444.56541,-231.35845 442.79277,-235.59563 442.79277,-240.52532 C 442.79277,-245.45391 444.56541,-249.7213 448.11122,-253.32751 C 451.56642,-256.81402 455.7885,-258.557 460.77635,-258.557 C 465.82465,-258.55701 470.09039,-256.81403 473.57574,-253.32751 z M 450.45776,-250.98267 C 447.51104,-248.00629 446.03823,-244.51978 446.03823,-240.52033 C 446.03823,-236.52198 447.49651,-233.06507 450.41247,-230.14966 C 453.32897,-227.23316 456.80096,-225.77545 460.82952,-225.77545 C 464.85808,-225.77545 468.35967,-227.24768 471.33605,-230.19385 C 474.16198,-232.9303 475.57549,-236.37091 475.57549,-240.52033 C 475.57549,-244.63837 474.13903,-248.13379 471.26781,-251.00501 C 468.39714,-253.87568 464.9179,-255.31159 460.82952,-255.31159 C 456.74112,-255.31158 453.28314,-253.86841 450.45776,-250.98267 z M 458.21225,-242.27948 C 457.76196,-243.26117 457.08795,-243.75232 456.18903,-243.75232 C 454.59986,-243.75232 453.80558,-242.68225 453.80558,-240.54321 C 453.80558,-238.40368 454.59986,-237.33471 456.18903,-237.33471 C 457.23841,-237.33471 457.98795,-237.85546 458.43769,-238.89922 L 460.64045,-237.72625 C 459.59052,-235.86077 458.01536,-234.92779 455.91496,-234.92779 C 454.29506,-234.92779 452.99733,-235.42449 452.0229,-236.4168 C 451.0468,-237.41021 450.56016,-238.77953 450.56016,-240.52532 C 450.56016,-242.24035 451.06245,-243.60186 452.06764,-244.61034 C 453.07283,-245.61888 454.32466,-246.12291 455.82545,-246.12291 C 458.04557,-246.12291 459.63526,-245.24803 460.59626,-243.50005 L 458.21225,-242.27948 z M 468.57562,-242.27948 C 468.12475,-243.26117 467.46417,-243.75232 466.5932,-243.75232 C 464.97217,-243.75232 464.16107,-242.68225 464.16107,-240.54321 C 464.16107,-238.40368 464.97217,-237.33471 466.5932,-237.33471 C 467.64429,-237.33471 468.38037,-237.85546 468.80048,-238.89922 L 471.05249,-237.72625 C 470.00421,-235.86077 468.43127,-234.92779 466.33478,-234.92779 C 464.7171,-234.92779 463.42218,-235.42449 462.44831,-236.4168 C 461.47614,-237.41021 460.98896,-238.77953 460.98896,-240.52532 C 460.98896,-242.24035 461.48341,-243.60186 462.47181,-244.61034 C 463.45966,-245.61888 464.71711,-246.12291 466.24531,-246.12291 C 468.4615,-246.12291 470.04896,-245.24803 471.0066,-243.50005 L 468.57562,-242.27948 z"/>

            </g>

        </g>

        <circle
            cx="255.55124"
            cy="15.31348"
            r="10.80664"
            style="fill:#ffffff"/>

        <path
            d="M 258.67819,12.18701 C 258.67819,11.77051 258.3403,11.4331 257.92526,11.4331 L 253.15182,11.4331 C 252.73678,11.4331 252.39889,11.7705 252.39889,12.18701 L 252.39889,16.95996 L 253.72994,16.95996 L 253.72994,22.61182 L 257.34713,22.61182 L 257.34713,16.95996 L 258.67818,16.95996 L 258.67818,12.18701 L 258.67819,12.18701 z"/>

        <circle
            cx="255.53854"
            cy="9.1723604"
            r="1.63281"/>

        <path
            d="M 255.5239,3.40723 C 252.29148,3.40723 249.55515,4.53516 247.31589,6.79102 C 245.01804,9.12452 243.8696,11.88672 243.8696,15.07569 C 243.8696,18.26466 245.01804,21.00733 247.31589,23.30225 C 249.61374,25.59668 252.35007,26.74414 255.5239,26.74414 C 258.73679,26.74414 261.52195,25.58789 263.87742,23.27295 C 266.09715,21.07568 267.2075,18.34326 267.2075,15.07568 C 267.2075,11.8081 266.07762,9.04687 263.8198,6.79101 C 261.56003,4.53516 258.79538,3.40723 255.5239,3.40723 z M 255.55319,5.50684 C 258.20163,5.50684 260.45065,6.44092 262.30026,8.30811 C 264.1694,10.15528 265.10397,12.41114 265.10397,15.07569 C 265.10397,17.75928 264.18893,19.98633 262.35885,21.75587 C 260.43014,23.66212 258.16256,24.61476 255.55319,24.61476 C 252.94284,24.61476 250.69381,23.67189 248.80612,21.78517 C 246.91647,19.89845 245.97311,17.66212 245.97311,15.0757 C 245.97311,12.48879 246.92721,10.23341 248.83541,8.30812 C 250.6655,6.44092 252.90475,5.50684 255.55319,5.50684 z"
            style="fill-rule:evenodd"/>
    </g>
</svg>

<?xml version="1.0"?>
<svg xmlns="http://www.w3.org/2000/svg" viewBox="0 0 120 42" version="1.0" xmlns:rdf="http://www.w3.org/1999/02/22-rdf-syntax-ns#" xmlns:cc="http://creativecommons.org/ns#">
 <g transform="matrix(0.9937728,0,0,0.9936696,-177.69267,6.25128e-7)">
  <path fill="#aab2ab" d="M181.97,0.51074l114.06,0.20264c1.59,0,3.02-0.23633,3.02,3.1806l-0.14,37.567h-119.82v-37.707c0-1.6851,0.16-3.2437,2.88-3.2437z" nodetypes="ccccccc"/>
  <path d="M297.3,0h-116.23c-1.25,0-2.26,1.0142-2.26,2.2607v39.496c0,0.282,0.23,0.511,0.51,0.511h119.73c0.28,0,0.51-0.229,0.51-0.511v-39.496c0-1.2465-1.02-2.2607-2.26-2.2607zm-116.23,1.0215h116.23c0.68,0,1.24,0.5556,1.24,1.2392v27.449h-83.35c-3.04,5.506-8.91,9.245-15.64,9.245-6.74,0-12.6-3.735-15.64-9.245h-4.08v-27.449c0-0.6835,0.55-1.2392,1.24-1.2392z"/>
  <g enable-background="new " fill="#FFF">
   <path d="M253.08,32.956c0.31,0,0.61,0.028,0.87,0.084s0.48,0.147,0.67,0.275c0.19,0.127,0.33,0.297,0.44,0.508,0.1,0.212,0.15,0.473,0.15,0.784,0,0.336-0.08,0.616-0.23,0.839-0.15,0.225-0.38,0.408-0.68,0.551,0.41,0.118,0.72,0.325,0.93,0.621,0.2,0.296,0.3,0.652,0.3,1.069,0,0.336-0.07,0.627-0.2,0.874-0.13,0.245-0.3,0.446-0.52,0.601-0.23,0.156-0.48,0.272-0.76,0.346-0.29,0.075-0.58,0.112-0.88,0.112h-3.23v-6.664h3.14zm-0.19,2.695c0.26,0,0.48-0.062,0.65-0.186,0.16-0.124,0.25-0.325,0.25-0.605,0-0.155-0.03-0.283-0.09-0.381-0.05-0.1-0.13-0.177-0.22-0.234-0.09-0.056-0.2-0.095-0.32-0.116-0.12-0.022-0.25-0.032-0.38-0.032h-1.38v1.554h1.49zm0.09,2.828c0.14,0,0.28-0.013,0.41-0.041,0.13-0.029,0.24-0.076,0.34-0.14,0.1-0.066,0.18-0.154,0.24-0.267,0.06-0.111,0.09-0.255,0.09-0.428,0-0.342-0.1-0.586-0.29-0.733-0.19-0.145-0.45-0.219-0.77-0.219h-1.6v1.828h1.58z"/>
   <path d="M255.79,32.956h1.64l1.56,2.632,1.55-2.632h1.64l-2.48,4.106v2.558h-1.47v-2.595l-2.44-4.069z"/>
  </g>
  <g transform="matrix(0.872921,0,0,0.872921,50.12536,143.2144)">
   <path d="M186.9-141.46c0.01,8.68-7.03,15.72-15.71,15.73-8.68,0-15.72-7.03-15.72-15.71v-0.02c-0.01-8.68,7.02-15.72,15.7-15.73,8.68,0,15.73,7.03,15.73,15.71v0.02z" rx="22.939548" ry="22.939548" cy="264.3577" cx="296.35416" type="arc" fill="#FFF"/>
   <g transform="translate(-289.6157,99.0653)">
    <path d="M473.58-253.33c3.48,3.49,5.22,7.76,5.22,12.8,0,5.05-1.71,9.28-5.13,12.67-3.64,3.58-7.94,5.37-12.89,5.37-4.9,0-9.12-1.78-12.67-5.32-3.54-3.55-5.32-7.79-5.32-12.72,0-4.92,1.78-9.19,5.32-12.8,3.46-3.48,7.68-5.23,12.67-5.23,5.04,0,9.31,1.75,12.8,5.23zm-23.12,2.35c-2.95,2.97-4.42,6.46-4.42,10.46s1.46,7.45,4.37,10.37c2.92,2.92,6.39,4.37,10.42,4.37s7.53-1.47,10.51-4.41c2.82-2.74,4.24-6.18,4.24-10.33,0-4.12-1.44-7.61-4.31-10.49-2.87-2.87-6.35-4.3-10.44-4.3s-7.55,1.44-10.37,4.33zm7.75,8.7c-0.45-0.98-1.12-1.47-2.02-1.47-1.59,0-2.38,1.07-2.38,3.21s0.79,3.21,2.38,3.21c1.05,0,1.8-0.53,2.25-1.57l2.2,1.17c-1.05,1.87-2.62,2.8-4.73,2.8-1.61,0-2.91-0.49-3.89-1.49-0.97-0.99-1.46-2.36-1.46-4.11,0-1.71,0.5-3.07,1.51-4.08,1-1.01,2.25-1.51,3.76-1.51,2.22,0,3.81,0.87,4.77,2.62l-2.39,1.22zm10.37,0c-0.46-0.98-1.12-1.47-1.99-1.47-1.62,0-2.43,1.07-2.43,3.21s0.81,3.21,2.43,3.21c1.05,0,1.79-0.53,2.21-1.57l2.25,1.17c-1.05,1.87-2.62,2.8-4.72,2.8-1.61,0-2.91-0.49-3.88-1.49-0.97-0.99-1.46-2.36-1.46-4.11,0-1.71,0.49-3.07,1.48-4.08s2.25-1.51,3.78-1.51c2.21,0,3.8,0.87,4.76,2.62l-2.43,1.22z"/>
   </g>
  </g>
  <circle d="m 266.35788,15.31348 c 0,5.968343 -4.8383,10.80664 -10.80664,10.80664 -5.96834,0 -10.80664,-4.838297 -10.80664,-10.80664 0,-5.9683419 4.8383,-10.8066393 10.80664,-10.8066393 5.96834,0 10.80664,4.8382974 10.80664,10.8066393 z" cy="15.313" cx="255.55" r="10.807" fill="#FFF"/>
  <path d="M258.68,12.187c0-0.416-0.34-0.754-0.75-0.754h-4.78c-0.41,0-0.75,0.337-0.75,0.754v4.773h1.33v5.652h3.62v-5.652h1.33v-4.773z"/>
  <circle cy="9.1724" cx="255.54" r="1.6328" d="m 257.17135,9.1723604 c 0,0.9017756 -0.73103,1.6328096 -1.63281,1.6328096 -0.90177,0 -1.63281,-0.731034 -1.63281,-1.6328096 0,-0.901776 0.73104,-1.63281 1.63281,-1.63281 0.90178,0 1.63281,0.731034 1.63281,1.63281 z"/>
  <path fill-rule="evenodd" d="M255.52,3.4072c-3.23,0-5.96,1.128-8.2,3.3838-2.3,2.3335-3.45,5.096-3.45,8.285s1.15,5.931,3.45,8.226c2.29,2.295,5.03,3.442,8.2,3.442,3.22,0,6-1.156,8.36-3.471,2.22-2.197,3.33-4.93,3.33-8.197,0-3.268-1.13-6.0291-3.39-8.285-2.26-2.2558-5.02-3.3838-8.3-3.3838zm0.03,2.0996c2.65,0,4.9,0.9341,6.75,2.8013,1.87,1.8469,2.8,4.1029,2.8,6.7679,0,2.683-0.91,4.91-2.74,6.68-1.93,1.906-4.2,2.859-6.81,2.859s-4.86-0.943-6.74-2.83c-1.89-1.887-2.84-4.123-2.84-6.709,0-2.587,0.96-4.843,2.87-6.7679,1.83-1.8672,4.06-2.8013,6.71-2.8013z"/>
 </g>
 <metadata>
  <rdf:RDF>
   <cc:Work rdf:about="http://creativecommons.org/about/downloads"/>
  </rdf:RDF>
 </metadata>
</svg>
